src/epub/images/titlepage.svg

<?xml version="1.0" encoding="utf-8"?>
<svg xmlns="http://www.w3.org/2000/svg" xmlns:svg="http://www.w3.org/2000/svg" version="1.1" viewBox="0 0 1400 340">
	<title>The titlepage for the Standard Ebooks edition of Cranford, by Elizabeth Gaskell</title>
	<g aria-label="CRANFORD">
		<path d="m 449.49342,114.09357 c -17.68421,0 -25.4503,-12.35088 -25.4503,-22.736846 0,-10.292397 7.76609,-22.643275 25.4503,-22.643275 8.98245,0 15.15789,4.77193 15.15789,4.77193 l 7.48538,-14.97076 c 0,0 -8.60819,-7.111112 -25.35672,-7.111112 -21.89474,0 -41.82457,17.964913 -41.82457,40.140352 0,22.081871 20.0234,39.859651 41.82457,39.859651 16.74853,0 25.35672,-7.11111 25.35672,-7.11111 l -7.48538,-14.97076 c 0,0 -6.17544,4.77193 -15.15789,4.77193 z"/>
		<path d="M 483.95833,52.807016 V 130 h 17.59065 V 99.497075 L 525.12792,130 H 547.4905 L 520.9174,98.093567 c 9.45029,-2.994152 15.81286,-10.760234 15.81286,-22.362574 0,-15.157895 -10.8538,-22.923977 -25.16959,-22.923977 z m 17.59065,34.245615 V 66.842104 h 2.05848 c 6.64327,0 14.59649,0.467836 14.59649,10.105263 0,9.637428 -7.95322,10.105264 -14.59649,10.105264 z"/>
		<path d="m 595.23172,52.807016 h -16.2807 L 547.79312,130 h 18.90059 l 5.7076,-15.4386 h 29.38012 L 607.48903,130 h 18.90059 z m 0.56141,46.31579 h -17.40351 l 8.60818,-22.45614 h 0.18714 z"/>
		<path d="m 651.89985,82.093566 h 0.18714 L 682.77705,130 h 17.59064 V 52.807016 h -17.59064 v 47.906434 h -0.18714 L 651.89985,52.807016 H 634.30921 V 130 h 17.59064 z"/>
		<path d="M 761.24343,52.807016 H 716.61185 V 130 h 17.59064 V 99.029239 h 24.98246 V 83.590642 H 734.20249 V 68.245613 h 27.04094 z"/>
		<path d="m 771.14693,91.356724 c 0,22.549706 16.09357,40.046786 38.92398,40.046786 22.17544,0 38.83041,-17.49708 38.83041,-40.046786 0,-22.549708 -17.40351,-39.953217 -38.83041,-39.953217 -21.23977,0 -38.92398,17.403509 -38.92398,39.953217 z m 18.99416,0 c 0,-11.508772 6.36257,-23.017544 19.92982,-23.017544 13.66082,0 19.83626,11.508772 19.83626,23.017544 0,11.508776 -5.80117,23.017546 -19.83626,23.017546 -14.40936,0 -19.92982,-11.50877 -19.92982,-23.017546 z"/>
		<path d="M 861.66303,52.807016 V 130 h 17.59064 V 99.497075 L 902.83262,130 h 22.36257 l -26.5731,-31.906433 c 9.4503,-2.994152 15.81287,-10.760234 15.81287,-22.362574 0,-15.157895 -10.8538,-22.923977 -25.16959,-22.923977 z m 17.59064,34.245615 V 66.842104 h 2.05848 c 6.64328,0 14.59649,0.467836 14.59649,10.105263 0,9.637428 -7.95321,10.105264 -14.59649,10.105264 z"/>
		<path d="M 933.73172,52.807016 V 130 h 22.36258 c 21.23976,0 38.92397,-16.09357 38.92397,-38.643276 0,-22.45614 -17.77777,-38.549708 -38.92397,-38.549708 z M 951.32237,114.2807 V 68.526315 h 2.71345 c 13.09941,0 21.9883,10.011696 21.9883,22.923977 -0.0936,12.912278 -8.98245,22.830408 -21.9883,22.830408 z"/>
	</g>
	<g aria-label="ELIZABETH GASKELL">
		<path d="m 323.90954,232.10526 h -33.1228 V 290 h 33.1228 v -11.57895 h -19.92982 v -11.64912 h 19.08772 v -11.57895 h -19.08772 v -11.50877 h 19.92982 z"/>
		<path d="M 349.68696,232.10526 H 336.49397 V 290 h 33.12281 v -11.57895 h -19.92982 z"/>
		<path d="M 394.2977,232.10526 H 381.10471 V 290 h 13.19299 z"/>
		<path d="m 456.39199,232.10526 h -47.64912 v 11.57895 h 24.5614 L 404.6727,290 h 49.82456 v -11.57895 h -26.80702 z"/>
		<path d="M 496.16612,232.10526 H 483.95559 L 460.58717,290 h 14.17544 l 4.2807,-11.57895 H 501.0784 L 505.3591,290 h 14.17544 z m 0.42105,34.73685 H 483.53454 L 489.99068,250 h 0.14035 z"/>
		<path d="M 526.72424,232.10526 V 290 h 21.96491 c 12,0 18.94737,-6.59649 18.94737,-16.14035 0,-9.33333 -5.12281,-13.33333 -12.35088,-14.59649 4.91228,-2.52632 7.22807,-7.08772 7.22807,-12.42105 0,-11.01755 -7.85965,-14.73685 -17.82456,-14.73685 z m 13.19298,22.66667 V 242.2807 h 1.05263 c 5.75439,0 8.77193,1.75439 8.77193,5.89474 0,4.8421 -3.08772,6.59649 -8.77193,6.59649 z m 0,25.05263 v -13.68421 h 4.14035 c 6.24561,0 9.68421,1.89474 9.68421,7.22807 0,4.5614 -3.4386,6.45614 -9.68421,6.45614 z"/>
		<path d="M 611.58499,232.10526 H 578.46218 V 290 h 33.12281 v -11.57895 h -19.92983 v -11.64912 h 19.08772 v -11.57895 h -19.08772 v -11.50877 h 19.92983 z"/>
		<path d="m 620.5203,243.68421 h 13.75439 V 290 h 13.19298 v -46.31579 h 13.75439 V 232.10526 H 620.5203 Z"/>
		<path d="m 684.16612,266.77193 h 18.66667 V 290 h 13.19298 v -57.89474 h -13.19298 v 23.08772 H 684.16612 V 232.10526 H 670.97314 V 290 h 13.19298 z"/>
		<path d="m 805.96656,257.57895 h -26.73684 v 10.17544 h 13.33333 c 0,7.08772 -6.24561,11.15789 -12.5614,11.15789 -8.14035,0 -14.73684,-8 -14.73684,-17.82456 0,-10.03509 6.59649,-18.10526 14.73684,-18.10526 5.12281,0 9.54386,2.03508 12.91228,7.43859 l 8.63158,-9.47368 c -5.05263,-6.10526 -12.14035,-9.89474 -22.31579,-9.89474 -16.2807,0 -28.21053,13.40351 -28.21053,30.03509 0,16.5614 12.63158,29.96491 28.21053,29.96491 11.36842,0 23.57895,-6.24561 26.73684,-20.91228 z"/>
		<path d="M 846.13324,232.10526 H 833.92271 L 810.55429,290 h 14.17544 l 4.2807,-11.57895 h 22.03509 L 855.32622,290 h 14.17544 z m 0.42105,34.73685 H 833.50166 L 839.9578,250 h 0.14035 z"/>
		<path d="m 896.65407,231.05263 c -9.33334,0 -18.8772,6.8772 -18.8772,17.68421 0,6.03509 4.07018,11.4386 11.01755,14.8772 6.87719,3.43859 13.05263,5.33333 13.05263,9.54385 0,5.40351 -5.47369,5.68422 -8.35088,5.68422 -6.45614,0 -14.17544,-6.52632 -14.17544,-6.52632 l -6.59649,11.08772 c 0,0 8.21053,7.64912 21.75439,7.64912 11.29824,0 21.82456,-4.8421 21.82456,-18.66666 0,-7.57895 -7.08772,-13.05264 -13.54386,-15.78948 -6.59649,-2.80702 -12.07018,-5.12281 -12.07018,-8.35088 0,-3.15789 2.38597,-5.19298 6.8772,-5.19298 5.96491,0 11.71929,4 11.71929,4 l 5.33334,-10.52631 c 0,0 -7.4386,-5.47369 -17.96491,-5.47369 z"/>
		<path d="m 980.1716,290 -26.94737,-30.45614 23.29824,-27.4386 h -16 l -19.85965,23.64913 V 232.10526 H 927.46984 V 290 h 13.19298 V 265.4386 L 961.99616,290 Z"/>
		<path d="M 1020.8284,232.10526 H 987.70556 V 290 h 33.12284 v -11.57895 h -19.9299 v -11.64912 h 19.0878 v -11.57895 h -19.0878 v -11.50877 h 19.9299 z"/>
		<path d="m 1046.6058,232.10526 h -13.193 V 290 h 33.1228 v -11.57895 h -19.9298 z"/>
		<path d="m 1091.2165,232.10526 h -13.1929 V 290 h 33.1228 v -11.57895 h -19.9299 z"/>
	</g>
</svg>

<?xml version="1.0" encoding="utf-8"?>
<svg xmlns="http://www.w3.org/2000/svg" xmlns:svg="http://www.w3.org/2000/svg" version="1.1" viewBox="0 0 1400 340">
	<title>The titlepage for the Standard Ebooks edition of Cranford, by Elizabeth Gaskell</title>
	<g>
		<path d="m 449.49342,114.09357 c -17.68421,0 -25.4503,-12.35088 -25.4503,-22.736846 0,-10.292397 7.76609,-22.643275 25.4503,-22.643275 8.98245,0 15.15789,4.77193 15.15789,4.77193 l 7.48538,-14.97076 c 0,0 -8.60819,-7.111112 -25.35672,-7.111112 -21.89474,0 -41.82457,17.964913 -41.82457,40.140352 0,22.081871 20.0234,39.859651 41.82457,39.859651 16.74853,0 25.35672,-7.11111 25.35672,-7.11111 l -7.48538,-14.97076 c 0,0 -6.17544,4.77193 -15.15789,4.77193 z"/>
		<path d="m 483.95833,52.807016 0,77.192984 17.59065,0 0,-30.502925 L 525.12792,130 547.4905,130 520.9174,98.093567 c 9.45029,-2.994152 15.81286,-10.760234 15.81286,-22.362574 0,-15.157895 -10.8538,-22.923977 -25.16959,-22.923977 l -27.60234,0 z m 17.59065,34.245615 0,-20.210527 2.05848,0 c 6.64327,0 14.59649,0.467836 14.59649,10.105263 0,9.637428 -7.95322,10.105264 -14.59649,10.105264 l -2.05848,0 z"/>
		<path d="m 595.23172,52.807016 -16.2807,0 L 547.79312,130 l 18.90059,0 5.7076,-15.4386 29.38012,0 5.7076,15.4386 18.90059,0 -31.1579,-77.192984 z m 0.56141,46.31579 -17.40351,0 8.60818,-22.45614 0.18714,0 8.60819,22.45614 z"/>
		<path d="m 651.89985,82.093566 0.18714,0 L 682.77705,130 l 17.59064,0 0,-77.192984 -17.59064,0 0,47.906434 -0.18714,0 -30.69006,-47.906434 -17.59064,0 0,77.192984 17.59064,0 0,-47.906434 z"/>
		<path d="m 761.24343,52.807016 -44.63158,0 0,77.192984 17.59064,0 0,-30.970761 24.98246,0 0,-15.438597 -24.98246,0 0,-15.345029 27.04094,0 0,-15.438597 z"/>
		<path d="m 771.14693,91.356724 c 0,22.549706 16.09357,40.046786 38.92398,40.046786 22.17544,0 38.83041,-17.49708 38.83041,-40.046786 0,-22.549708 -17.40351,-39.953217 -38.83041,-39.953217 -21.23977,0 -38.92398,17.403509 -38.92398,39.953217 z m 18.99416,0 c 0,-11.508772 6.36257,-23.017544 19.92982,-23.017544 13.66082,0 19.83626,11.508772 19.83626,23.017544 0,11.508776 -5.80117,23.017546 -19.83626,23.017546 -14.40936,0 -19.92982,-11.50877 -19.92982,-23.017546 z"/>
		<path d="m 861.66303,52.807016 0,77.192984 17.59064,0 0,-30.502925 L 902.83262,130 l 22.36257,0 -26.5731,-31.906433 c 9.4503,-2.994152 15.81287,-10.760234 15.81287,-22.362574 0,-15.157895 -10.8538,-22.923977 -25.16959,-22.923977 l -27.60234,0 z m 17.59064,34.245615 0,-20.210527 2.05848,0 c 6.64328,0 14.59649,0.467836 14.59649,10.105263 0,9.637428 -7.95321,10.105264 -14.59649,10.105264 l -2.05848,0 z"/>
		<path d="m 933.73172,52.807016 0,77.192984 22.36258,0 c 21.23976,0 38.92397,-16.09357 38.92397,-38.643276 0,-22.45614 -17.77777,-38.549708 -38.92397,-38.549708 l -22.36258,0 z m 17.59065,61.473684 0,-45.754385 2.71345,0 c 13.09941,0 21.9883,10.011696 21.9883,22.923977 -0.0936,12.912278 -8.98245,22.830408 -21.9883,22.830408 l -2.71345,0 z"/>
	</g>
	<g>
		<path d="m 323.90954,232.10526 -33.1228,0 0,57.89474 33.1228,0 0,-11.57895 -19.92982,0 0,-11.64912 19.08772,0 0,-11.57895 -19.08772,0 0,-11.50877 19.92982,0 0,-11.57895 z"/>
		<path d="m 349.68696,232.10526 -13.19299,0 0,57.89474 33.12281,0 0,-11.57895 -19.92982,0 0,-46.31579 z"/>
		<path d="m 394.2977,232.10526 -13.19299,0 0,57.89474 13.19299,0 0,-57.89474 z"/>
		<path d="m 456.39199,232.10526 -47.64912,0 0,11.57895 24.5614,0 L 404.6727,290 l 49.82456,0 0,-11.57895 -26.80702,0 28.70175,-46.31579 z"/>
		<path d="m 496.16612,232.10526 -12.21053,0 L 460.58717,290 l 14.17544,0 4.2807,-11.57895 22.03509,0 4.2807,11.57895 14.17544,0 -23.36842,-57.89474 z m 0.42105,34.73685 -13.05263,0 6.45614,-16.84211 0.14035,0 6.45614,16.84211 z"/>
		<path d="m 526.72424,232.10526 0,57.89474 21.96491,0 c 12,0 18.94737,-6.59649 18.94737,-16.14035 0,-9.33333 -5.12281,-13.33333 -12.35088,-14.59649 4.91228,-2.52632 7.22807,-7.08772 7.22807,-12.42105 0,-11.01755 -7.85965,-14.73685 -17.82456,-14.73685 l -17.96491,0 z m 13.19298,22.66667 0,-12.49123 1.05263,0 c 5.75439,0 8.77193,1.75439 8.77193,5.89474 0,4.8421 -3.08772,6.59649 -8.77193,6.59649 l -1.05263,0 z m 0,25.05263 0,-13.68421 4.14035,0 c 6.24561,0 9.68421,1.89474 9.68421,7.22807 0,4.5614 -3.4386,6.45614 -9.68421,6.45614 l -4.14035,0 z"/>
		<path d="m 611.58499,232.10526 -33.12281,0 0,57.89474 33.12281,0 0,-11.57895 -19.92983,0 0,-11.64912 19.08772,0 0,-11.57895 -19.08772,0 0,-11.50877 19.92983,0 0,-11.57895 z"/>
		<path d="m 620.5203,243.68421 13.75439,0 0,46.31579 13.19298,0 0,-46.31579 13.75439,0 0,-11.57895 -40.70176,0 0,11.57895 z"/>
		<path d="m 684.16612,266.77193 18.66667,0 0,23.22807 13.19298,0 0,-57.89474 -13.19298,0 0,23.08772 -18.66667,0 0,-23.08772 -13.19298,0 0,57.89474 13.19298,0 0,-23.22807 z"/>
		<path d="m 805.96656,257.57895 -26.73684,0 0,10.17544 13.33333,0 c 0,7.08772 -6.24561,11.15789 -12.5614,11.15789 -8.14035,0 -14.73684,-8 -14.73684,-17.82456 0,-10.03509 6.59649,-18.10526 14.73684,-18.10526 5.12281,0 9.54386,2.03508 12.91228,7.43859 l 8.63158,-9.47368 c -5.05263,-6.10526 -12.14035,-9.89474 -22.31579,-9.89474 -16.2807,0 -28.21053,13.40351 -28.21053,30.03509 0,16.5614 12.63158,29.96491 28.21053,29.96491 11.36842,0 23.57895,-6.24561 26.73684,-20.91228 l 0,-12.5614 z"/>
		<path d="m 846.13324,232.10526 -12.21053,0 L 810.55429,290 l 14.17544,0 4.2807,-11.57895 22.03509,0 4.2807,11.57895 14.17544,0 -23.36842,-57.89474 z m 0.42105,34.73685 -13.05263,0 L 839.9578,250 l 0.14035,0 6.45614,16.84211 z"/>
		<path d="m 896.65407,231.05263 c -9.33334,0 -18.8772,6.8772 -18.8772,17.68421 0,6.03509 4.07018,11.4386 11.01755,14.8772 6.87719,3.43859 13.05263,5.33333 13.05263,9.54385 0,5.40351 -5.47369,5.68422 -8.35088,5.68422 -6.45614,0 -14.17544,-6.52632 -14.17544,-6.52632 l -6.59649,11.08772 c 0,0 8.21053,7.64912 21.75439,7.64912 11.29824,0 21.82456,-4.8421 21.82456,-18.66666 0,-7.57895 -7.08772,-13.05264 -13.54386,-15.78948 -6.59649,-2.80702 -12.07018,-5.12281 -12.07018,-8.35088 0,-3.15789 2.38597,-5.19298 6.8772,-5.19298 5.96491,0 11.71929,4 11.71929,4 l 5.33334,-10.52631 c 0,0 -7.4386,-5.47369 -17.96491,-5.47369 z"/>
		<path d="m 980.1716,290 -26.94737,-30.45614 23.29824,-27.4386 -16,0 -19.85965,23.64913 0,-23.64913 -13.19298,0 0,57.89474 13.19298,0 0,-24.5614 21.33334,24.5614 18.17544,0 z"/>
		<path d="m 1020.8284,232.10526 -33.12284,0 0,57.89474 33.12284,0 0,-11.57895 -19.9299,0 0,-11.64912 19.0878,0 0,-11.57895 -19.0878,0 0,-11.50877 19.9299,0 0,-11.57895 z"/>
		<path d="m 1046.6058,232.10526 -13.193,0 0,57.89474 33.1228,0 0,-11.57895 -19.9298,0 0,-46.31579 z"/>
		<path d="m 1091.2165,232.10526 -13.1929,0 0,57.89474 33.1228,0 0,-11.57895 -19.9299,0 0,-46.31579 z"/>
	</g>
</svg>
